resources/images/nail.svg

<svg xmlns="http://www.w3.org/2000/svg" xmlns:xlink="http://www.w3.org/1999/xlink" preserveAspectRatio="none" width="285" height="427" viewBox="0 0 285 427"><defs><linearGradient id="a" gradientUnits="userSpaceOnUse" x1="114.612" y1="218.662" x2="136.787" y2="240.838" spreadMethod="pad"><stop offset="0%" stop-color="#666"/><stop offset="53.725%" stop-color="#FFF"/><stop offset="100%" stop-color="#777"/></linearGradient><linearGradient id="b" gradientUnits="userSpaceOnUse" x1="222.475" y1="78.575" x2="278.325" y2="134.425" spreadMethod="pad"><stop offset="0%" stop-color="#666"/><stop offset="53.725%" stop-color="#FFF"/><stop offset="100%" stop-color="#777"/></linearGradient><linearGradient id="c" gradientUnits="userSpaceOnUse" x1="258.262" y1="98.788" x2="252.037" y2="105.013" spreadMethod="pad"><stop offset="0%" stop-color="#666"/><stop offset="53.725%" stop-color="#FFF"/><stop offset="100%" stop-color="#777"/></linearGradient><g id="d"><path fill="url(#a)" d="M1.7 353.9L43.3 333q-11.75-7.9-20.85-20.75L1.7 353.9m235.35-251.6q-.45-.35-.65-.65-.8-.9-1.5-1.7L22.45 312.25Q31.55 325.1 43.3 333l212.3-212.3q-.8-.75-1.55-1.4-.5-.45-1.1-.95-3.4-3.4-7.15-7.1-4.75-4.8-8.75-8.95z"/><path fill="url(#b)" d="M221.7 79.25q-1.6 1.7 5.45 11 3.4 4.55 7.75 9.7.7.8 1.5 1.7.2.3.65.65 4 4.15 8.75 8.95 3.75 3.7 7.15 7.1.6.5 1.1.95.75.65 1.55 1.4 5.9 5.1 10.95 9 9.5 7 11.15 5.4l5.15-5.15q-1.55 1.3-9.6-4.5-.65-.6-1.4-1.05-9.15-6.95-20.75-18.55-11.55-11.6-18.6-20.95-.55-.45-.9-1.1-6.05-8.2-4.6-9.75l-5.3 5.2z"/><path fill="url(#c)" d="M238.1 79.25q-9.3-7-11-5.35l-.1.15q-1.45 1.55 4.6 9.75.35.65.9 1.1 7.05 9.35 18.6 20.95 11.6 11.6 20.75 18.55.75.45 1.4 1.05 8.05 5.8 9.6 4.5l.15-.15q1.6-1.65-5.4-10.95-6.85-9.45-18.45-21.05-11.6-11.5-21.05-18.55z"/></g><path id="e" stroke="#212121" stroke-width="1" stroke-linejoin="round" stroke-linecap="round" fill="none" d="M227 74.05l.1-.15q1.7-1.65 11 5.35 9.45 7.05 21.05 18.55 11.6 11.6 18.45 21.05 7 9.3 5.4 10.95l-.15.15-5.15 5.15q-1.65 1.6-11.15-5.4-5.05-3.9-10.95-9L43.3 333 1.7 353.9l20.75-41.65L234.9 99.95q-4.35-5.15-7.75-9.7-7.05-9.3-5.45-11l5.3-5.2q-1.45 1.55 4.6 9.75.35.65.9 1.1 7.05 9.35 18.6 20.95 11.6 11.6 20.75 18.55.75.45 1.4 1.05 8.05 5.8 9.6 4.5m-27.25-9.25q-.8-.75-1.55-1.4-.5-.45-1.1-.95-3.4-3.4-7.15-7.1-4.75-4.8-8.75-8.95-.45-.35-.65-.65-.8-.9-1.5-1.7M22.45 312.25Q31.55 325.1 43.3 333"/></defs><g><use xlink:href="#d"/><use xlink:href="#e"/></g></svg>

<svg xmlns="http://www.w3.org/2000/svg" version="1.1" xmlns:xlink="http://www.w3.org/1999/xlink" preserveAspectRatio="none" x="0px" y="0px" width="285px" height="427px" viewBox="0 0 285 427">
<defs>
<linearGradient id="Gradient_1" gradientUnits="userSpaceOnUse" x1="114.6125" y1="218.6625" x2="136.7875" y2="240.8375" spreadMethod="pad">
<stop  offset="0%" stop-color="#666666"/>

<stop  offset="53.72549019607843%" stop-color="#FFFFFF"/>

<stop  offset="100%" stop-color="#777777"/>
</linearGradient>

<linearGradient id="Gradient_2" gradientUnits="userSpaceOnUse" x1="222.475" y1="78.575" x2="278.325" y2="134.425" spreadMethod="pad">
<stop  offset="0%" stop-color="#666666"/>

<stop  offset="53.72549019607843%" stop-color="#FFFFFF"/>

<stop  offset="100%" stop-color="#777777"/>
</linearGradient>

<linearGradient id="Gradient_3" gradientUnits="userSpaceOnUse" x1="258.2625" y1="98.78750000000001" x2="252.0375" y2="105.0125" spreadMethod="pad">
<stop  offset="0%" stop-color="#666666"/>

<stop  offset="53.72549019607843%" stop-color="#FFFFFF"/>

<stop  offset="100%" stop-color="#777777"/>
</linearGradient>

<g id="Layer0_0_FILL">
<path fill="url(#Gradient_1)" stroke="none" d="
M 1.7 353.9
L 43.3 333
Q 31.55 325.1 22.45 312.25
L 1.7 353.9
M 237.05 102.3
Q 236.6 101.95 236.4 101.65 235.6 100.75 234.9 99.95
L 22.45 312.25
Q 31.55 325.1 43.3 333
L 255.6 120.7
Q 254.8 119.95 254.05 119.3 253.55 118.85 252.95 118.35 249.55 114.95 245.8 111.25 241.05 106.45 237.05 102.3 Z"/>

<path fill="url(#Gradient_2)" stroke="none" d="
M 221.7 79.25
Q 220.1 80.95 227.15 90.25 230.55 94.8 234.9 99.95 235.6 100.75 236.4 101.65 236.6 101.95 237.05 102.3 241.05 106.45 245.8 111.25 249.55 114.95 252.95 118.35 253.55 118.85 254.05 119.3 254.8 119.95 255.6 120.7 261.5 125.8 266.55 129.7 276.05 136.7 277.7 135.1
L 282.85 129.95
Q 281.3 131.25 273.25 125.45 272.6 124.85 271.85 124.4 262.7 117.45 251.1 105.85 239.55 94.25 232.5 84.9 231.95 84.45 231.6 83.8 225.55 75.6 227 74.05
L 221.7 79.25 Z"/>

<path fill="url(#Gradient_3)" stroke="none" d="
M 238.1 79.25
Q 228.8 72.25 227.1 73.9
L 227 74.05
Q 225.55 75.6 231.6 83.8 231.95 84.45 232.5 84.9 239.55 94.25 251.1 105.85 262.7 117.45 271.85 124.4 272.6 124.85 273.25 125.45 281.3 131.25 282.85 129.95
L 283 129.8
Q 284.6 128.15 277.6 118.85 270.75 109.4 259.15 97.8 247.55 86.3 238.1 79.25 Z"/>
</g>

<path id="Layer0_0_1_STROKES" stroke="#212121" stroke-width="1" stroke-linejoin="round" stroke-linecap="round" fill="none" d="
M 227 74.05
L 227.1 73.9
Q 228.8 72.25 238.1 79.25 247.55 86.3 259.15 97.8 270.75 109.4 277.6 118.85 284.6 128.15 283 129.8
L 282.85 129.95 277.7 135.1
Q 276.05 136.7 266.55 129.7 261.5 125.8 255.6 120.7
L 43.3 333 1.7 353.9 22.45 312.25 234.9 99.95
Q 230.55 94.8 227.15 90.25 220.1 80.95 221.7 79.25
L 227 74.05
Q 225.55 75.6 231.6 83.8 231.95 84.45 232.5 84.9 239.55 94.25 251.1 105.85 262.7 117.45 271.85 124.4 272.6 124.85 273.25 125.45 281.3 131.25 282.85 129.95
M 255.6 120.7
Q 254.8 119.95 254.05 119.3 253.55 118.85 252.95 118.35 249.55 114.95 245.8 111.25 241.05 106.45 237.05 102.3 236.6 101.95 236.4 101.65 235.6 100.75 234.9 99.95
M 22.45 312.25
Q 31.55 325.1 43.3 333"/>
</defs>

<g transform="matrix( 1, 0, 0, 1, 0,0) ">
<use xlink:href="#Layer0_0_FILL"/>

<use xlink:href="#Layer0_0_1_STROKES"/>
</g>
</svg>
